X:1
T:Title
%%score { ( 1 3 ) | ( 2 4 ) }
L:1/8
Q:1/4=90
M:4/4
K:G
V:1 bass nm="Grand Piano"
V:3 bass 
V:2 bass 
V:4 bass 
V:1
 [D,B,D]2 [E,B,E]2 [E,CE]3[K:treble] [F,DF] | z2 B2 B2 z2 | z4 z2 G2 | G2 FG A2 D2 | %4
w: I.~Allan~Sankey * * *||||
 .[G,B,D]2 [E,B,E]2 [E,CE]3[K:treble] [F,DF] | z2 d2 d2 z2 | [B,EB]2 [C^DA]2 G3 =D | %7
w: |||
 z4 G4[K:bass] |] %8
w: |
V:2
 G,,2 G,,2 A,,3 A,, | z A [B,,G,]2 G,2 z2 | [A,,A,]2 [B,,G,]2 [C,A,]2 [^C,_B,]2 | %3
 z2 [D,C]2 [F,C]4 | z D, G,,2 A,,3 A,, | z[K:treble] B[K:bass] [B,,G,]2 G,2 A,2 | %6
 C,2 C,2 [D,B,D]3 [D,B,] | [D,_B,^C]2 [D,A,=C]2 E,2 z2 |] %8
V:3
 x7[K:treble] x | .[G,DG]2 D^D E2- [A,EA]2 | [Ec]2 [EB]2 [EA]2 E^D | x8 | x7[K:treble] x | %5
 .[G,DG]2 D=F E2- [Ec]2 | x8 | E2 F2 C2[K:bass] [D,B,]2 |] %8
V:4
 x8 | B,,2 z2 C,4 | x8 | [D,B,D]2 A,E, D,2 A,,2 | G,,2 z2 z4 | B,,2[K:treble][K:bass] z2 C,4 | x8 | %7
 z4 G,,4 |] %8

